src/assets/svg/magnifier.svg

<svg width="33" height="33" viewBox="0 0 33 33" fill="none" xmlns="http://www.w3.org/2000/svg">
<path d="M31.431 31.2438L21.2874 21.1626M24.6686 12.7615C24.6686 14.306 24.3625 15.8354 23.7677 17.2624C23.173 18.6894 22.3013 19.986 21.2024 21.0781C20.1035 22.1703 18.7989 23.0366 17.3631 23.6277C15.9273 24.2188 14.3884 24.523 12.8343 24.523C11.2802 24.523 9.74131 24.2188 8.3055 23.6277C6.8697 23.0366 5.5651 22.1703 4.46618 21.0781C3.36727 19.986 2.49556 18.6894 1.90083 17.2624C1.3061 15.8354 1 14.306 1 12.7615C1 9.64215 2.24682 6.65057 4.46618 4.44486C6.68554 2.23915 9.69564 1 12.8343 1C15.9729 1 18.983 2.23915 21.2024 4.44486C23.4218 6.65057 24.6686 9.64215 24.6686 12.7615Z" stroke="black" stroke-opacity="0.5" stroke-width="2" stroke-linecap="round" stroke-linejoin="round"/>
</svg>

<svg xmlns="http://www.w3.org/2000/svg" width="33" height="33" fill="none"><path stroke="#000" stroke-linecap="round" stroke-linejoin="round" stroke-opacity=".5" stroke-width="2" d="M31.431 31.244 21.287 21.163m3.382-8.401c0 1.544-.306 3.073-.901 4.5a11.8 11.8 0 0 1-2.566 3.816 11.8 11.8 0 0 1-3.839 2.55 11.9 11.9 0 0 1-9.057 0 11.8 11.8 0 0 1-3.84-2.55 11.8 11.8 0 0 1-2.565-3.816 11.7 11.7 0 0 1-.901-4.5c0-3.12 1.247-6.111 3.466-8.317A11.87 11.87 0 0 1 12.834 1c3.139 0 6.149 1.24 8.368 3.445a11.73 11.73 0 0 1 3.467 8.317"/></svg>
